!!!OTL: Stimme der Mutter aus dem Grabe (58), S. 183
!!!id: T0204
**kern
*clefG2
*k[f#c#g#]
*A:
{8a
8a
=1
4.a
8a
4b
4a
=2
2f#
4d}
=3
{4a
=4
4.a
8a
4b
4a
=5
2e}
4r
=6
{8c#
8c#
=7
4c#
4e
4e
4a
=8
4a
8cc#
8ee
4ee}
=9
{4ee
=10
4dd
4dd
4f#
4g#
=11
2a}
4r
==
*-
!!!minrhy: 8
!!!meters: 4/4 ]  ZZ[4
!!!cut: Stimme der Mutter aus dem Grabe (58), S. 183
!!!reg: Luxemburg
!!!trd: Singendes Volk, Esch-Alzette 1937 posth.
!!!rhy1: XX  X_.XX_X_  X__X_
!!!rhy2: X_  X_.XX_X_  X__0_
!!!key: T0204  08  A 4/4 ]  ZZ[4
!!!mod: HEPTATONIK IONISCH]  AMBITUS[10b
!!!kad: -4-551
!!!akz: 12-6-4_12-5_-3-515_4-61_
!!!fot: 'a__aw_b__c__
!!!for: 'a__aw_b__bw_
!!!fok: '\__\__/__Vd_
!! PHRAS[AUFTAKTIG]
!!!fkt: Liebeslieder
!!!bem: Strassen, fff Witry, 7.3.1933
!! THILL, Mathias:
!! PR[13] 2K[9] 2G[30] 3K[0] 3G[0] 4A[4] 4Ü[0] 5A[2] 6K[0] 6G[0]
!! 7K[0] 7G[0] 8A[0] MEHR[0] SI[45] ABS[47] SR[38] SP[6]
!! ST[12] 2k[11] 2g[26] 3k[0] 3g[4] 4d[0] 4ü[0] 5d[2] 6k[0] 6g[0]
!! 7k[0] 7g[0] 8d[0] mehr[0] si[43] dm[+2] sr[36] sp[6]
!! 1F[31] 2F[62] 3F[8] 4F[0] LF[0] 2P[0] 3P[0] 4P[0] TRI[0] DF[3] AB[52]
!! TF[0] U3K[0] U3[0] U4[0] U4Ü[0] U5[2] U6K[0] U6[0] U7K[2] U7[0]
!! N1[15] N2K[0] N2[17] N3K[17] N3[0] N4[17] N4Ü[0] N5[25] N6K[0] N6[2]
!!!n7k: 4] N7[0] O1[0] O2K[0] O2[0] O3K[0] O3[0] HÖ[0
